svg/400/outlined/drag_indicator.svg

<svg xmlns="http://www.w3.org/2000/svg" width="48" height="48" viewBox="0 -960 960 960"><path d="M349.911-160Q321-160 300.5-180.589q-20.5-20.588-20.5-49.5Q280-259 300.589-279.5q20.588-20.5 49.5-20.5Q379-300 399.5-279.411q20.5 20.588 20.5 49.5Q420-201 399.411-180.5q-20.588 20.5-49.5 20.5Zm260 0Q581-160 560.5-180.589q-20.5-20.588-20.5-49.5Q540-259 560.589-279.5q20.588-20.5 49.5-20.5Q639-300 659.5-279.411q20.5 20.588 20.5 49.5Q680-201 659.411-180.5q-20.588 20.5-49.5 20.5Zm-260-250Q321-410 300.5-430.589q-20.5-20.588-20.5-49.5Q280-509 300.589-529.5q20.588-20.5 49.5-20.5Q379-550 399.5-529.411q20.5 20.588 20.5 49.5Q420-451 399.411-430.5q-20.588 20.5-49.5 20.5Zm260 0Q581-410 560.5-430.589q-20.5-20.588-20.5-49.5Q540-509 560.589-529.5q20.588-20.5 49.5-20.5Q639-550 659.5-529.411q20.5 20.588 20.5 49.5Q680-451 659.411-430.5q-20.588 20.5-49.5 20.5Zm-260-250Q321-660 300.5-680.589q-20.5-20.588-20.5-49.5Q280-759 300.589-779.5q20.588-20.5 49.5-20.5Q379-800 399.5-779.411q20.5 20.588 20.5 49.5Q420-701 399.411-680.5q-20.588 20.5-49.5 20.5Zm260 0Q581-660 560.5-680.589q-20.5-20.588-20.5-49.5Q540-759 560.589-779.5q20.588-20.5 49.5-20.5Q639-800 659.5-779.411q20.5 20.588 20.5 49.5Q680-701 659.411-680.5q-20.588 20.5-49.5 20.5Z"/></svg>

<svg xmlns="http://www.w3.org/2000/svg" width="48" height="48" viewBox="0 -960 960 960"><path d="M349.91-160q-28.91 0-49.41-20.59-20.5-20.59-20.5-49.5t20.59-49.41q20.59-20.5 49.5-20.5t49.41 20.59q20.5 20.59 20.5 49.5t-20.59 49.41q-20.59 20.5-49.5 20.5Zm260 0q-28.91 0-49.41-20.59-20.5-20.59-20.5-49.5t20.59-49.41q20.59-20.5 49.5-20.5t49.41 20.59q20.5 20.59 20.5 49.5t-20.59 49.41q-20.59 20.5-49.5 20.5Zm-260-250q-28.91 0-49.41-20.59-20.5-20.59-20.5-49.5t20.59-49.41q20.59-20.5 49.5-20.5t49.41 20.59q20.5 20.59 20.5 49.5t-20.59 49.41q-20.59 20.5-49.5 20.5Zm260 0q-28.91 0-49.41-20.59-20.5-20.59-20.5-49.5t20.59-49.41q20.59-20.5 49.5-20.5t49.41 20.59q20.5 20.59 20.5 49.5t-20.59 49.41q-20.59 20.5-49.5 20.5Zm-260-250q-28.91 0-49.41-20.59-20.5-20.59-20.5-49.5t20.59-49.41q20.59-20.5 49.5-20.5t49.41 20.59q20.5 20.59 20.5 49.5t-20.59 49.41q-20.59 20.5-49.5 20.5Zm260 0q-28.91 0-49.41-20.59-20.5-20.59-20.5-49.5t20.59-49.41q20.59-20.5 49.5-20.5t49.41 20.59q20.5 20.59 20.5 49.5t-20.59 49.41q-20.59 20.5-49.5 20.5Z"/></svg>
